static/img/platform/security/sensitive.svg

<svg xmlns="http://www.w3.org/2000/svg" xml:space="preserve" style="fill-rule:evenodd;clip-rule:evenodd;stroke-linejoin:round;stroke-miterlimit:2" viewBox="0 0 32 32"><path d="M32 16c0-8.831-7.169-16-16-16S0 7.169 0 16s7.169 16 16 16 16-7.169 16-16" style="fill:#fbed53;fill-opacity:.1"/><path d="M20.11 13.109v-3.08a4 4 0 1 0-8 0v3.08a7.11 7.11 0 0 0-2.795 7.971 7.11 7.11 0 0 0 6.795 5.017 7.11 7.11 0 0 0 4-12.988m-6.5-3.08a2.501 2.501 0 0 1 5 0v2.31a7 7 0 0 0-5 0zm2.5 14.6a5.61 5.61 0 1 1 5.61-5.6 5.61 5.61 0 0 1-5.61 5.57z" style="fill:#fbd153;fill-rule:nonzero"/><path d="M16.109 16.029a2.002 2.002 0 0 0-1.75 2.949c.219.407.573.726 1 .901v1.4a.75.75 0 0 0 1.5 0v-1.4a1.998 1.998 0 0 0-.75-3.85" style="fill:#fbd153;fill-rule:nonzero"/></svg>

<?xml version="1.0" encoding="UTF-8" standalone="no"?>
<!DOCTYPE svg PUBLIC "-//W3C//DTD SVG 1.1//EN" "http://www.w3.org/Graphics/SVG/1.1/DTD/svg11.dtd">
<svg width="100%" height="100%" viewBox="0 0 32 32" version="1.1" xmlns="http://www.w3.org/2000/svg" xmlns:xlink="http://www.w3.org/1999/xlink" xml:space="preserve" xmlns:serif="http://www.serif.com/" style="fill-rule:evenodd;clip-rule:evenodd;stroke-linejoin:round;stroke-miterlimit:2;">
    <path d="M32,16C32,7.169 24.831,0 16,0C7.169,0 0,7.169 0,16C0,24.831 7.169,32 16,32C24.831,32 32,24.831 32,16Z" style="fill:rgb(251,237,83);fill-opacity:0.1;"/>
    <path d="M20.11,13.109L20.11,10.029C20.11,8.968 19.689,7.951 18.938,7.201C18.188,6.451 17.171,6.029 16.11,6.029C15.049,6.029 14.032,6.451 13.282,7.201C12.531,7.951 12.11,8.968 12.11,10.029L12.11,13.109C10.853,13.964 9.904,15.2 9.401,16.635C8.898,18.069 8.868,19.627 9.315,21.08C9.762,22.533 10.664,23.804 11.887,24.707C13.11,25.61 14.59,26.097 16.11,26.097C17.63,26.097 19.11,25.61 20.333,24.707C21.556,23.804 22.458,22.533 22.905,21.08C23.353,19.627 23.323,18.069 22.819,16.635C22.316,15.2 21.367,13.964 20.11,13.109ZM13.61,10.029C13.61,9.366 13.873,8.73 14.342,8.262C14.811,7.793 15.447,7.529 16.11,7.529C16.773,7.529 17.409,7.793 17.878,8.262C18.347,8.73 18.61,9.366 18.61,10.029L18.61,12.339C17,11.724 15.22,11.724 13.61,12.339L13.61,10.029ZM16.11,24.629C15,24.629 13.915,24.3 12.992,23.683C12.069,23.066 11.35,22.19 10.926,21.164C10.502,20.138 10.391,19.01 10.609,17.921C10.826,16.833 11.361,15.833 12.147,15.049C12.932,14.265 13.933,13.731 15.022,13.516C16.111,13.301 17.239,13.413 18.264,13.839C19.289,14.265 20.164,14.986 20.779,15.91C21.395,16.834 21.722,17.919 21.72,19.029C21.709,20.51 21.114,21.927 20.063,22.97C19.012,24.014 17.591,24.599 16.11,24.599L16.11,24.629Z" style="fill:rgb(251,209,83);fill-rule:nonzero;"/>
    <path d="M16.109,16.029C15.647,16.032 15.2,16.194 14.844,16.489C14.487,16.784 14.245,17.193 14.156,17.647C14.068,18.101 14.139,18.571 14.359,18.978C14.578,19.385 14.932,19.704 15.359,19.879L15.359,21.279C15.359,21.478 15.438,21.669 15.579,21.81C15.72,21.95 15.91,22.029 16.109,22.029C16.308,22.029 16.499,21.95 16.64,21.81C16.78,21.669 16.859,21.478 16.859,21.279L16.859,19.879C17.228,19.73 17.544,19.475 17.767,19.145C17.989,18.815 18.109,18.427 18.109,18.029C18.109,17.499 17.899,16.99 17.523,16.615C17.148,16.24 16.64,16.029 16.109,16.029Z" style="fill:rgb(251,209,83);fill-rule:nonzero;"/>
</svg>
